_includes/icons/ios-x-mark.svg

<svg fill="#666" height="50" viewBox="0 0 50 50" width="50" xmlns="http://www.w3.org/2000/svg"><path d="m9 4c-2.7495161 0-5 2.2504839-5 5v32c0 2.749516 2.2504839 5 5 5h32c2.749516 0 5-2.250484 5-5v-32c0-2.7495161-2.250484-5-5-5zm0 2h32c1.668484 0 3 1.3315161 3 3v32c0 1.668484-1.331516 3-3 3h-32c-1.6684839 0-3-1.331516-3-3v-32c0-1.6684839 1.3315161-3 3-3zm7.707031 9.292969-1.414062 1.414062 8.292969 8.292969-8.292969 8.292969 1.414062 1.414062 8.292969-8.292969 8.292969 8.292969 1.414062-1.414062-8.292969-8.292969 8.292969-8.292969-1.414062-1.414062-8.292969 8.292969z"/></svg>

<svg xmlns="http://www.w3.org/2000/svg" viewBox="0 0 50 50" width="50" height="50" fill="#666"><path style="line-height:normal;text-indent:0;text-align:start;text-decoration-line:none;text-decoration-style:solid;text-decoration-color:#000;text-transform:none;block-progression:tb;isolation:auto;mix-blend-mode:normal" d="M 9 4 C 6.2504839 4 4 6.2504839 4 9 L 4 41 C 4 43.749516 6.2504839 46 9 46 L 41 46 C 43.749516 46 46 43.749516 46 41 L 46 9 C 46 6.2504839 43.749516 4 41 4 L 9 4 z M 9 6 L 41 6 C 42.668484 6 44 7.3315161 44 9 L 44 41 C 44 42.668484 42.668484 44 41 44 L 9 44 C 7.3315161 44 6 42.668484 6 41 L 6 9 C 6 7.3315161 7.3315161 6 9 6 z M 16.707031 15.292969 L 15.292969 16.707031 L 23.585938 25 L 15.292969 33.292969 L 16.707031 34.707031 L 25 26.414062 L 33.292969 34.707031 L 34.707031 33.292969 L 26.414062 25 L 34.707031 16.707031 L 33.292969 15.292969 L 25 23.585938 L 16.707031 15.292969 z"/></svg>
